!!!!SEGMENT: pl-sa--552-a-ix-32--014_anonim--valtz.krn
!!!cenid: 18xx:525
!!!COM: Anonim
!!!COM-rismID:
!!!CDT:
!!!CNT:
!!!OTL: Valtz
!!!PDT:
!!!AGN: Secular; Waltz
!!!SMS-siglum: PL-SA
!!!SMS-shelfmark: 552/A IX 32
!!!SMS-shelfwork: 014 W
!!!SMS-variant:
!!!SMS-altvar:
!!!NIFC-rismSourceID: 1001069527
!!!NIFC-islandoraID:
!!!URL-pdf-islandora:
!!!URL-scan: https://bc.bdsandomierz.pl/dlibra/publication/1308/edition/1276/content @EN{Scan on Cyfrowa Biblioteka Diecezjalna w Sandomierzu} @PL{Skany w portalu Cyfrowa Biblioteka Diecezjalna w Sandomierzu}
!!!ONB-nifc: Str. 8, s. 1-5
!!!AIN: 1 empty
!!!key:
**kern	**kern	**dynam
*part1	*part1	*part1
*staff2	*staff1	*
*Iempty	*Iempty	*
*I"	*I"	*
*I'keyb	*I'keyb	*
*clefF4	*clefG2	*
*k[b-e-]	*k[b-e-]	*
*B-:	*B-:	*
*M3/8	*M3/8	*
=1	=1	=1
!	!LO:TX:a:i:t=Valtz	!
!LO:TX:a:t=P:problem= kolejność znaków&colon; E-, BB-	!LO:TX:a:t=P:problem= kolejność znaków&colon; ee-, b-	!
4BB-\ 4D\ 4F\ 4B-\	8bb-\L	.
.	16ddd\L	.
.	16bb-\J	.
8r	8ff\J	.
=2	=2	=2
4BB-\ 4D 4F 4B-	8ff\L	.
.	16bb-\L	.
.	16ff\J	.
8r	8dd\J	.
=3	=3	=3
8BB-\L	8b-\L	.
8BB-\	8b-\	.
8D\J	8dd\J	.
=4	=4	=4
4F\	4ff\	.
8r	8r	.
=5	=5	=5
!LO:CL:ed	!	!
*clefG2	*	*
4B-/ 4g	16dd\LL	.
.	16ee-\	.
.	16gg\	.
.	16ee-\	.
8f/	16cc#X\	.
.	16dd\JJ	.
=6	=6	=6
4B-/ 4e-	16bn\LL	.
.	16cc\	.
.	16ee-\	.
.	16cc\	.
8d/	16a\	.
.	16b-X\JJ	.
*clefF4	*	*
=7	=7	=7
*tremolo	*	*
!LO:TX:a:t=P:problem=3 kreski nad nutą jako oznaczenie tremolanda	!	!
!LO:TX:a:t=|||:problem	!	!
8F\ 8c 8e-L	16a\LL	.
.	16cc\	.
4ryy	16ff\	.
.	16ee-\	.
.	16cc\	.
.	16a\JJ	.
*Xtremolo	*	*
=8	=8	=8
8B-\ 8d	16b-\LL	.
.	16dd\JJ	.
4B-\ 4d	4b-\	.
=9:|!|:	=9:|!|:	=9:|!|:
*^	*	*
16r	4.F\	8cc\L	.
16c/LL	.	.	.
16A/	.	8ff\	.
16c/	.	.	.
16A/	.	8ff\J	.
16c/JJ	.	.	.
=10	=10	=10	=10
*rep	*rep	*	*
!LO:TX:a:t=P:global:problem=brak oznaczeń cyfrowych nad powtórzeniami	!	!	!
16r	4.F\	(>8cc\L	.
16c/LL	.	.	.
16A/	.	8aa\	.
16c/	.	.	.
16A/	.	8aa\J)	.
16c/JJ	.	.	.
*Xrep	*Xrep	*	*
=11	=11	=11	=11
*rep	*rep	*	*
16r	4.F\	(>8cc\L	.
16c/LL	.	.	.
16A/	.	8ccc\	.
16c/	.	.	.
16A/	.	8ccc\J)	.
16c/JJ	.	.	.
*Xrep	*Xrep	*	*
=12	=12	=12	=12
16rB	4.C\	16ccc\LL	.
16c/LL	.	16ccc\	.
16G/	.	16ddd\	.
16c/	.	16bb-\J	.
16G/	.	8gg\J	.
16c/JJ	.	.	.
=13	=13	=13	=13
16r	4.F\	(>8cc\L	.
16c\LL	.	.	.
16A\	.	8ff\	.
16c\	.	.	.
16A\	.	8ff\J)	.
16c\JJ	.	.	.
=14	=14	=14	=14
*rep	*rep	*	*
16r	4.F\	8cc\L	.
16c\LL	.	.	.
16A\	.	8aa\	.
16c\	.	.	.
16A\	.	8aa\J	.
16c\JJ	.	.	.
*Xrep	*Xrep	*	*
=15	=15	=15	=15
16ryy	4.C\	16gg\LL	.
16c\LL	.	16aa\	.
16G\	.	16bb-\	.
!	!	!LO:TX:i:a:t= g	!
16c\	.	16aa\	.
!	!	!LO:SIC:s=16een	!
16G\	.	16ee-\	.
16c\JJ	.	16gg\JJ	.
!!LO:LB:g=original
=16	=16	=16	=16
16ryy	4.F\	16ff\LL	.
16c\LL	.	16aa\JJ	.
16A\	.	4ff\	.
16c\	.	.	.
16A\	.	.	.
16c\JJ	.	.	.
*v	*v	*	*
=17:|!|:	=17:|!|:	=17:|!|:
*tremolo	*	*
!LO:TX:a:t=P:problem=w taktach 17-20 tylko ósemka z kropką. Przyjęto tremolando.	!	!
8F\ 8dL	16ff\LL	f
.	16gg\	.
8F\ 8d	16ff\	.
.	16een\J	.
8F\ 8dJ	8ff\J	.
=18	=18	=18
8F\ 8BnL	4gg\	.
8F\ 8Bn	.	.
8F\ 8BnJ	8dd\	.
=19	=19	=19
8F\ 8cL	(>16ee-X\LL	.
.	16ff\	.
8F\ 8c	16ee-\	.
.	16dd\J	.
8F\ 8cJ	8ee-\J)	.
=20	=20	=20
8F\ 8AL	4ff\	.
8F\ 8A	.	.
8F\ 8AJ	8cc\	.
*Xtremolo	*	*
=21	=21	=21
!	!	!LO:DY:b:rj
8B-\L 8d	8b-\L 8dd	f
8B-\ 8d	8b-\ 8dd	.
8F\J 8c	8a\J 8cc	.
=22	=22	=22
8BB-\L 8D 8B-	8f/L 8b-	.
!	!LO:TX:i:a:t=teraz powtórzyć pierwszą część	!
8BB-\ 8D 8B-	8f/ 8b-	.
8F\J 8c	8f/J 8a 8cc	.
=23	=23	=23
8B-\L 8d	8b-\L 8dd	.
8B-\ 8d	8b-\ 8dd	.
8F\J 8c	8cc\J 8ee-	.
=24	=24	=24
4F\ 4c	16cc/LL	.
.	16b-/	.
.	16a/	.
.	16g/J	.
8r	8f/J	.
=25:|!|:	=25:|!|:	=25:|!|:
*^	*	*
8B-/L	4.G\	16dd\LL	.
.	.	16ee-\	.
8d/	.	16dd\	.
.	.	16cc\	.
8d/J	.	16b-\	.
.	.	16a\JJ	.
=26	=26	=26	=26
.	.	8qcc/	.
*rep	*rep	*	*
8B-/L	4.G\	8b-/L	.
8d/	.	16a/L	.
.	.	16b-/J	.
8d/J	.	8g/J	.
*Xrep	*Xrep	*	*
=27	=27	=27	=27
8A/L	4.D\	16a/LL	.
.	.	16f#X/	.
8c/	.	16d/	.
.	.	16f#/	.
8c/J	.	16a/	.
.	.	16f#/JJ	.
*v	*v	*	*
=28	=28	=28
.	8qa/	.
4G\ 4B-	16g\LL	.
.	16f#X\	.
.	16g\	.
.	16a\	.
8r	16b-\	.
.	16cc\JJ	.
=29	=29	=29
*^	*	*
8B-/L	4.G\	16dd\LL	.
.	.	16ee-\	.
8c/	.	16dd\	.
.	.	16cc\	.
8c/J	.	16b-\	.
.	.	16a\JJ	.
=30	=30	=30	=30
.	.	8qa/ 8qcc	.
*rep	*rep	*	*
8B-/L	4.G\	8b-\L	.
8c/	.	16a\L	.
.	.	16b-\J	.
8c/J	.	8g\J	.
*Xrep	*Xrep	*	*
=31	=31	=31	=31
!	!LO:N:vis=4	!	!
8A/L	4.D\	16f/LL 16a	.
.	.	16f#X/	.
8c/	.	16d/	.
.	.	16f#/	.
8c/J	.	16a/	.
.	.	16f#/JJ	.
*v	*v	*	*
!!LO:LB:g=original
=32	=32	=32
8G\ 8B-	16g\LL	.
.	16b-\JJ	.
4G\ 4B-	4g/	.
=33:|!|:	=33:|!|:	=33:|!|:
.	8qcc/	.
8G\L	16b-\LL	.
.	16a\	.
8d\	16b-\	.
.	16dd\	.
8en\J	16cc\	.
.	16b-\JJ	.
=34	=34	=34
4F\ 4f	16a/LL	.
.	16b-/	.
.	16cc/	.
.	16a/J	.
8r	8f/J	.
=35	=35	=35
.	8qff/	.
8F\L	16ee-\LL	.
.	16dd\	.
8G\	16ee-\	.
.	16gg\	.
8A\J	16ff\	.
.	16ee-\JJ	.
=36	=36	=36
!LO:TX:a:t=P:problem=mixed beam	!	!
8B-\L	16cc#X\LL	.
.	16dd\	.
8F\	16ff\	.
.	16dd\J	.
8BB-/J	8b-\J	.
=37	=37	=37
*^	*	*
!LO:TX:a:t=P:problem=8\left	!	!	!
8B-/L	4G\	16dd\LL	.
.	.	16ee-\	.
8d/	.	16dd\	.
.	.	16cc\	.
8d/J	8ryy	16b-\	.
.	.	16a\JJ	.
=38	=38	=38	=38
.	.	8qcc/	.
*rep	*rep	*	*
8B-/L	4G\	8b-/L	.
8d/	.	16a/L	.
.	.	16b-/J	.
8d/J	8ryy	8g/J	.
*Xrep	*Xrep	*	*
=39	=39	=39	=39
8A/L	4D\	16a/LL	.
.	.	16f#X/	.
8c/	.	16d/	.
.	.	16f#/	.
8c/J	8ryy	16a/	.
.	.	16f#/JJ	.
*v	*v	*	*
=40	=40	=40
8G\ 8B-	(<16g/LL	.
.	16b-/JJ)	.
!	!LO:TX:i:b:t=Valc Da Capo al Fine	!
!	!LO:TX:b:t=P:problem=napis za kreską	!
4G\ 4B-	4g/	.
=41:|!|:	=41:|!|:	=41:|!|:
*	*clefG2	*
*k[b-e-a-]	*k[b-e-a-]	*
*^	*	*
!	!	!LO:TX:a:t=P:problem= klucz wiolinowy przed znakami przykluczowymi	!
!	!	!LO:TX:b:t=P:problem=akolada przed rozpoczęciem tej części	!
!LO:TX:a:t=P:problem=kolejność znaków&colon; E-, BB-, AA-	!	!LO:TX:a:t=P:problem=kolejność znaków&colon; ee-, a-, b-	!
8r	4EE-\	8.g/L 8.b-	.
8E-/L	.	.	.
.	.	16a-/K 16cc	.
8E-/J	8ryy	8g/J 8b-	.
=42	=42	=42	=42
*rep	*rep	*	*
8r	4EE-\	4b-/ 4gg	.
8E-/L	.	.	.
!	!	!LO:N:vis=4	!
!	!	!LO:N:vis=4	!
8E-/J	8ryy	8g/ 8b- 8ee-	.
*Xrep	*Xrep	*	*
=43	=43	=43	=43
*	*	*^	*
*rep	*rep	*	*	*
8r	4EE-\	4.cc/	8g\L	.
8E-/L	.	.	16b-\L	.
.	.	.	16a-\	.
8E-/J	8ryy	.	16g\	.
.	.	.	16a-\JJ	.
*Xrep	*Xrep	*	*	*
*	*	*v	*v	*
!!LO:LB:g=original
=44	=44	=44	=44
*rep	*rep	*	*
8r	4EE-\	4g/ 4ee-	.
8E-/L	.	.	.
8E-/J	8ryy	8g/ 8b-	.
*Xrep	*Xrep	*	*
=45	=45	=45	=45
*	*	*^	*
*rep	*rep	*	*	*
8r	4EE-\	8cc/L	4.a-\	.
8E-/L	.	16ee-/L	.	.
.	.	16cc/	.	.
8E-/J	8ryy	16a-/	.	.
.	.	16cc/JJ	.	.
*Xrep	*Xrep	*	*	*
=46	=46	=46	=46	=46
*rep	*rep	*	*	*
8r	4EE-\	8b-/L	4.g\	.
8E-/L	.	16ee-/L	.	.
.	.	16b-/	.	.
8E-/J	8ryy	16g/	.	.
.	.	16b-/JJ	.	.
*Xrep	*Xrep	*	*	*
*v	*v	*	*	*
*	*v	*v	*
=47	=47	=47
*^	*	*
8ryy	4BB-\	16a-/LL	.
.	.	16b-/	.
8B-\L	.	16cc/	.
.	.	16a-/	.
8B-\J	8ryy	16f/	.
.	.	16d/JJ	.
=48	=48	=48	=48
8ryy	4.EE-\	16e-/LL	.
.	.	16g/JJ	.
8E-/L	.	4e-/	.
8E-/J	.	.	.
=49:|!|:	=49:|!|:	=49:|!|:	=49:|!|:
8r	4BB-\	16b-\LL	.
.	.	16cc\	.
8F\L 8A-	.	16dd\	.
.	.	16ee-\	.
8F\J 8A-	8ryy	16ff\	.
.	.	16gg\JJ	.
=50	=50	=50	=50
*rep	*rep	*	*
8r	4BB-\	16bb-\LL	.
.	.	16aa-\	.
8F\L 8A-	.	16gg\	.
.	.	16ff\	.
8F\J 8A-	8ryy	16ee-\	.
.	.	16dd\JJ	.
*Xrep	*Xrep	*	*
=51	=51	=51	=51
.	.	8qff/	.
8r	4.BB-\	16ee-\LL	.
.	.	16dd\	.
!LO:N:vis=4	!	!	!
8E-\ 8G	.	16ee-\	.
.	.	16ff\	.
8E-\ 8G	.	16gg\	.
.	.	16aa-\JJ	.
=52	=52	=52	=52
*rep	*rep	*	*
8r	4.BB-\	16ccc\LL	.
.	.	16bbn\	.
!LO:N:vis=4	!	!	!
8E-\L 8G	.	16aan\	.
!	!	!LO:SIC:s=16bb-	!
.	.	16bb\	.
8E-\J 8G	.	16aa\	.
.	.	16bb\JJ	.
*Xrep	*Xrep	*	*
=53	=53	=53	=53
8ryy	4.BB-\	16b-\LL	.
.	.	16cc\	.
!LO:N:vis=4	!	!	!
8F\ 8A-	.	16dd\	.
.	.	16ee-\	.
!LO:N:vis=4	!	!	!
8F\ 8A-	.	16ff\	.
.	.	16gg\JJ	.
=54	=54	=54	=54
*rep	*rep	*	*
8ryy	4.BB-\	16bb-\LL	.
.	.	16aa-\	.
!LO:N:vis=4	!	!	!
8F\ 8A-	.	16gg\	.
.	.	16ff\	.
!LO:N:vis=4	!	!	!
8F\ 8A-	.	16ee-\	.
.	.	16dd\JJ	.
*Xrep	*Xrep	*	*
*v	*v	*	*
=55	=55	=55
4E-\ 4G	16ee-\LL	.
.	16dd\	.
.	16ee-\	.
.	16ff\	.
8C\ 8E-	16gg\	.
.	16aan\JJ	.
=56	=56	=56
4BB-\ 4D	16bbn\LL	.
.	16aan\	.
.	16aa-X\	.
.	16gg\	.
8r	16gg-X\	.
.	16ff\JJ	.
=57	=57	=57
*^	*	*
8r	4EE-\	8.g/L 8.b-	.
8E-\L	.	.	.
.	.	16a-/K 16cc	.
8E-\J	8ryy	8g/J 8b-	.
!!LO:LB:g=original
=58	=58	=58-	=58
*rep	*rep	*	*
8r	4EE-\	4b-\ 4gg	.
8E-\L	.	.	.
8E-\J	8ryy	8g\ 8b- 8ee-	.
*Xrep	*Xrep	*	*
=59	=59	=59	=59
*	*	*^	*
*rep	*rep	*	*	*
8r	4EE-\	4.dd/	8a-\L	.
8E-\L	.	.	16b-\L	.
.	.	.	16a-\	.
8E-\J	8ryy	.	16g\	.
.	.	.	16a-\JJ	.
*Xrep	*Xrep	*	*	*
*	*	*v	*v	*
=60	=60	=60	=60
*rep	*rep	*	*
8r	4EE-\	4g\ 4ee-	.
8E-\L	.	.	.
8E-\J	8ryy	8g/ 8b-	.
*Xrep	*Xrep	*	*
=61	=61	=61	=61
*	*	*^	*
*rep	*rep	*	*	*
8r	4EE-\	8cc/L	4.a-\	.
8E-\L	.	16ee-/L	.	.
.	.	16cc/	.	.
8E-\J	8ryy	16a-/	.	.
.	.	16cc/JJ	.	.
*Xrep	*Xrep	*	*	*
*	*	*v	*v	*
=62	=62	=62	=62
8r	4BB-\	16a-/LL	.
.	.	16b-/	.
8B-\L	.	16cc/	.
.	.	16a-/	.
8B-\J	8ryy	16f/	.
.	.	16d/JJ	.
=63	=63	=63	=63
8r	4EE-\	16e-/LL	.
.	.	16g/JJ	.
8E-\L	.	4e-/	.
!	!	!LO:TX:b:t=P:problem= napis za kreską	!
!	!	!LO:TX:i:b:t=Valtz Da Capo\nal Fine	!
8E-\J	8ryy	.	.
*v	*v	*	*
=64:|!|:	=64:|!|:	=64:|!|:
*clefF4	*clefG2	*
*k[b-e-a-]	*k[b-e-a-]	*
*clefG2	*	*
*tremolo	*	*
!LO:TX:a:t=P:problem= klucz basowy przed znakami przykluczowymi	!LO:TX:b:t=P:problem=akolada przed rozpoczęciem tej części	!
!LO:TX:a:t=P:problem=kolejność znaków&colon; E-, BB-, AA-	!LO:TX:a:t=P:problem=kolejność znaków&colon; ee-, b-, a-	!
!LO:TX:a:t=P:problem=w taktach 64-71 tylko ósemka z kropką. Przyjęto tremolando.	!	!
8B-/ 8d 8fL	16b-\LL	.
.	16cc\	.
8B-/ 8d 8f	16dd\	.
.	16ee-\	.
8B-/ 8d 8fJ	16ee-\	.
.	16gg\JJ	.
=65	=65	=65
8B-/ 8e- 8.gL	8ee-\L	.
.	8qff/	.
8B-/ 8e- 8.g	16ee-\L	.
.	16dd\J	.
8B-/ 8e- 8.gJ	8ee-\J	.
=66	=66	=66
8B-/ 8d 8fL	16ff\LL	.
.	16gg\	.
8B-/ 8d 8f	16aa-\	.
.	16bb-\	.
8B-/ 8d 8fJ	16ccc\	.
.	16bb-\JJ	.
=67	=67	=67
8B-/ 8e- 8gL	4bb-\	.
8B-/ 8e- 8g	.	.
8B-/ 8e- 8gJ	16gg\LL	.
.	16ee-\JJ	.
=68	=68	=68
8B-/ 8d 8fL	16b-\LL	.
.	16cc\	.
8B-/ 8d 8f	16dd\	.
.	16ee-\	.
8B-/ 8d 8fJ	16ff\	.
.	16gg\JJ	.
=69	=69	=69
8B-/ 8e- 8gL	8ee-\L	.
.	8qff/	.
8B-/ 8e- 8g	16ee-\L	.
.	16dd\J	.
8B-/ 8e- 8gJ	8ee-\J	.
!!LO:LB:g=original
=70	=70	=70
.	8qqff/	.
8c/ 8e- 8fL	8ee-\L	.
8c/ 8e- 8f	16dd\L	.
.	16cc\	.
8c/ 8e- 8fJ	16b-\	.
.	16an\JJ	.
=71	=71	=71
8B-/ 8dL	4b-\	.
8B-/ 8d	.	.
8B-/ 8dJ	8b-\	.
*Xtremolo	*	*
*clefF4	*	*
=72||	=72||	=72||
*^	*	*
8BB-\	4BB-/	8b-\L	.
8B-\L	.	16cc\L	.
.	.	16b-\	.
8B-\J	8ryy	16an\	.
.	.	16b-\JJ	.
=73	=73	=73	=73
*rep	*rep	*	*
!	!LO:TX:a:t=P:problem=brak oznaczeń cyfrowych nad powtórzeniami	!	!
8BB-\	4BB-/	4b-\ 4gg	.
8B-\L	.	.	.
8B-\J	8ryy	8g\ 8ee-	.
*Xrep	*Xrep	*	*
=74	=74	=74	=74
*rep	*rep	*	*
8BB-\	4BB-/	8g\L 8ee-	.
8B-\L	.	8dd\	.
8B-\J	8ryy	8cc\J	.
*Xrep	*Xrep	*	*
=75	=75	=75	=75
*rep	*rep	*	*
8BB-\	4BB-/	4d/ 4b-	.
8B-\L	.	.	.
8B-\J	8ryy	8a-X/	.
*Xrep	*Xrep	*	*
=76	=76	=76	=76
*rep	*rep	*	*
8BB-\	4BB-/	8e-/L 8g	.
8B-\L	.	16a-/L	.
.	.	16g/	.
8B-\J	8ryy	16f/	.
.	.	16g/JJ	.
*Xrep	*Xrep	*	*
=77	=77	=77	=77
*rep	*rep	*	*
8BB-\	4BB-/	8f/L 8a-	.
8B-\L	.	16b-/L	.
.	.	16a-/	.
8B-\J	8ryy	16g/	.
.	.	16g/JJ	.
*Xrep	*Xrep	*	*
=78	=78	=78	=78
*rep	*rep	*	*
8BB-\	4BB-/	8g/L 8b-	.
8B-\L	.	8f/ 8a-	.
8B-\J	8ryy	8e-/J 8g	.
*Xrep	*Xrep	*	*
=79	=79	=79	=79
*rep	*rep	*	*
8BB-\	4BB-/	4e-/ 4g	.
8B-\L	.	.	.
8B-\J	8ryy	8d/ 8f	.
*Xrep	*Xrep	*	*
*v	*v	*	*
=80||	=80||	=80||
*clefG2	*	*
*tremolo	*	*
!LO:TX:a:t=P:problem=w taktach 80-86 tylko ósemka z kropką. Przyjęto tremolando.	!	!
8B-/ 8f 8a-L	16b-\LL 16dd	.
.	16cc\	.
8B-/ 8f 8a-	16dd\	.
.	16ee-\	.
8B-/ 8f 8a-J	16ff\	.
.	16gg\JJ	.
=81	=81	=81
8B-/ 8e- 8gL	8ee-\L	.
.	8qff/	.
8B-/ 8e- 8g	16ee-\L	.
.	16dd\J	.
8B-/ 8e- 8gJ	8ee-\J	.
=82	=82	=82
8B-/ 8d 8fL	16ff\LL	.
.	16gg\	.
8B-/ 8d 8f	16aa-\	.
.	16bb-\	.
8B-/ 8d 8fJ	16ccc\	.
.	16bb-\JJ	.
=83	=83	=83
8B-/ 8e- 8gL	4bb-\	.
8B-/ 8e- 8g	.	.
8B-/ 8e- 8gJ	16gg\LL	.
.	16ee-\JJ	.
=84	=84	=84
8B-/ 8f 8a-L	16b-\LL	.
.	16cc\	.
8B-/ 8f 8a-	16dd\	.
.	16ee-\	.
8B-/ 8f 8a-J	16ff\	.
.	16gg\JJ	.
=85	=85	=85
!LO:TX:b:i:t=V&colon; subitto Coda	!	!
!	!LO:TX:b:i:t=Valtz Da Capo al fine	!
8B-/ 8e- 8gL	8ee-\L	.
.	8qff/	.
8B-/ 8e- 8g	16ee-\L	.
.	16dd\J	.
8B-/ 8e- 8gJ	8ee-\J	.
=86	=86	=86
!LO:TX:a:t=P:problem=w źródle ósemka z kropką	!	!
8A-/ 8c 8fL	16ff\LL	.
.	16gg\	.
8A-/ 8c 8fJ	16aa-\	.
.	16ff\	.
8B-/ 8f	16dd\	.
.	16ff\JJ	.
=87	=87	=87
8e-/ 8g	16ee-\LL	.
.	16gg\JJ	.
4e-/ 4g	4ee-\	.
==	==	==
*-	*-	*-
!!!system-decoration: {(s1,s2)}
!!!RDF**kern: > = above
!!!RDF**kern: < = below
!!!EED: Mateusz Mrugas
!!!EEV: 2020-12-12
!!!ENC: Anastazja Marusiak
!!!END: 2020-06-18
